!!!OTL: 1453. St. Hubertus.
!!!ARE: Europa, Mitteleuropa, Deutschland, Hessen, Spessart; Odenwald
!!!SCT: E1453
!!!TXL: @@DE
!!!YEM: Copyright 1995, estate of Helmut Schaffrath.
**kern	**text
*ICvox	*
*M4/4	*
*met(c)	*
*k[f#c#]	*
*D:	*
!LO:TX:a:t=Mäßig langsam.	!
!LO:TX:a:t=Mel. aus dem Speſſart, auch vom Odenwald.	!
{(8dL	Spring
8f#J)	.
=1	=1
4a	auf,
4a	ſpring
4a	auf,
4b	feins
=2	=2
4.a	Hir-
8g	-ſche-
4f#}	-lein,
{(8.aL	ſpring
16ddJ)	.
=3	=3
4b	auf
4a	auf
4e	dei-
(8gq	.
4b)	-ne
=4	=4
(4.a	Fü-
8g)	.
4f#}	-ße!
{8.a	Spring
16g	nur
=5	=5
8f#	auf
8e	und
8f#	lau-
8e	-fe
4f#	fort
8.a	in
16g	das
=6	=6
8f#	wun-
8e	-derſchö-
8f#	.
8e	-ne
4f#}	Ort,
{8.a	mei-
16dd	-ne
=7	=7
4b	Ku-
4a	-gel
4e	thut
(8gq	.
4b)	ſich
=8	=8
(4.a	rüb-
8g)	.
4f#}	-ren.
==	==
!!!AGN: Staende -, Jaeger - Lied
!!!ONB: ESAC (Essen Associative Code) Database: ERK3
!!!AMT: simple quadruple
!!!AIN: vox
!!!EED: Helmut Schaffrath
!!!EEV: 1.0
!!!GTL: Staendelieder (Berufslieder). 2. Jaegerlieder und Jaegerballaden.
!!!URL-scan: https://rosdok.uni-rostock.de/mcrviewer/recordIdentifier/rosdok_ppn745177999/iview2/phys_0318.iview2?x=-128.77276441889285&y=1029.7504307643976&scale=0.5870222003877487&rotation=0&layout=singlePageLayout
!!!ENC: Anna Maria Matuszewska
!!!EEV: 2024/12/31
*-	*-
